X:97
T:Miss Murray of Lintros
R:Reel
C:Laurie Andres (?)
S:ABC tune finder
M:4/4
L:1/8
Q:120
K:A
|: ed|"A"c2 cB A2 E2|"D"F4 "E"E2 d2|"A"c2 A2 "E"B2 AG|"D"ABcd "E"e2 ed|!
"A"c2 cB A2 E2|"D"F4 "E"E2 e2|"A"c2 A2 "E"GABG |"A"A6 :|!
|: E2 |"A"Ac e z e2 de|"D"f2 d2 d2 cB|"E7"E2 d2 d2 cd|"A"e2 c2 c2 BA|!
"A"E2 c2 "D"F2 d2|"A"c4 "E"B2 d2|"A"c2 A2 "E7"GABG|"A"A6 :|
